resources/icons/20px/route.svg

<?xml version="1.0" encoding="UTF-8"?>
<svg width="20px" height="20px" viewBox="0 0 20 20" version="1.1" xmlns="http://www.w3.org/2000/svg" xmlns:xlink="http://www.w3.org/1999/xlink">
    <title>Route 20</title>
    <g id="Route-20" stroke="none" stroke-width="1" fill="none" fill-rule="evenodd">
        <path d="M14.027671,6.01550226 C14.1741714,6.29111619 14.3380051,6.58571068 14.5133045,6.88793769 C14.8172382,7.41193851 15.1412322,7.93468255 15.4651441,8.43340571 L15.583,8.61050226 L15.3753664,8.60543987 L14.7984595,8.59995387 C12.7054012,8.60449776 11.956873,8.90311473 11.956873,9.49503084 C11.956873,9.5636934 12.2280423,9.74294603 13.2018,10.0621569 L14.2097791,10.3747829 C16.8809821,11.2061491 18.1999917,12.2019917 18.1999917,14.5421619 C18.1999917,17.302233 16.2721362,18.6006907 13.3677928,18.9179123 C12.5863794,19.0032607 11.8479413,19.0159993 10.9164608,18.9837845 L9.76632316,18.9379026 L6.221,18.938 L6.75637027,18.1265104 C7.1337838,17.5454116 7.51122938,16.9459202 7.87815641,16.3401791 L9.9177434,16.3403177 L10.604084,16.369539 C11.6322981,16.4156829 12.3739435,16.413287 13.1270424,16.3310312 C14.958531,16.1309902 15.799992,15.5642446 15.799992,14.5421619 C15.799992,13.8519616 15.3171377,13.4510828 13.808174,12.9569768 L12.9784177,12.6997781 C11.7862147,12.3355687 10.9405478,11.9996858 10.3882121,11.5353698 C10.7868748,10.5352616 11,9.69148996 11,8.997 C10.9975716,8.25896112 10.8626216,7.55216218 10.6177551,6.89930544 C11.3627101,6.32598161 12.50214,6.07659378 14.027671,6.01550226 Z M5,4.2 C7.64827586,4.2 9.79128857,6.351 9.8,8.997 C9.8,11.652 5,18.6 5,18.6 L4.5008,17.856168 C3.272,15.99252 0.2,11.121 0.2,8.997 C0.2,6.351 2.35172414,4.2 5,4.2 Z M5,6.6 C3.6752,6.6 2.6,7.6752 2.6,9 C2.6,10.3248 3.6752,11.4 5,11.4 C6.3248,11.4 7.4,10.3248 7.4,9 C7.4,7.6752 6.3248,6.6 5,6.6 Z M17,0.333333333 C18.4712644,0.333333333 19.661827,1.52833333 19.6666667,2.99833333 C19.6666667,4.47333333 17,8.33333333 17,8.33333333 L16.6088947,7.74646446 C15.8680143,6.60884463 14.3333333,4.11729885 14.3333333,2.99833333 C14.3333333,1.52833333 15.5287356,0.333333333 17,0.333333333 Z" id="Combined-Shape" fill="#182026" fill-rule="nonzero"></path>
    </g>
</svg>

<svg xmlns="http://www.w3.org/2000/svg" viewBox="0 0 20 20">
  <path d="M14.028 6.016c.146.275.31.57.485.872.304.524.628 1.047.952 1.545l.118.178-.208-.006-.577-.005c-2.093.004-2.841.303-2.841.895 0 .069.271.248 1.245.567l1.008.313c2.671.831 3.99 1.827 3.99 4.167 0 2.76-1.928 4.059-4.832 4.376-.782.085-1.52.098-2.452.066l-1.15-.046H6.221l.535-.811a68 68 0 0 0 1.122-1.787h2.04l.686.03c1.028.046 1.77.043 2.523-.039 1.832-.2 2.673-.767 2.673-1.789 0-.69-.483-1.09-1.992-1.585l-.83-.257c-1.192-.364-2.037-.7-2.59-1.165.399-1 .612-1.844.612-2.538a6 6 0 0 0-.382-2.098c.745-.573 1.884-.822 3.41-.883M5 4.2c2.648 0 4.791 2.151 4.8 4.797C9.8 11.652 5 18.6 5 18.6l-.5-.744C3.273 15.993.2 11.121.2 8.997A4.8 4.8 0 0 1 5 4.2m0 2.4a2.4 2.4 0 1 0 .002 4.802A2.4 2.4 0 0 0 5 6.6M17 .333a2.67 2.67 0 0 1 2.667 2.665C19.667 4.473 17 8.333 17 8.333l-.391-.587c-.741-1.137-2.276-3.629-2.276-4.748A2.67 2.67 0 0 1 17 .333"/>
</svg>
